X: 11505
Q: "Slow."
M: C
L: 1/8
K: G
[|\
(BA)(AG) G2ze | d2(3(cBc) B2z2 |\
a2-a(g//f//e//d//) b2-b(a//g//f//e//) | A2{f}e2 d2z2 |\
a2-a(g//f//e//d//) B2-BB//c//d//e// | A2{f}e2 d2z2 !p!|\
(dc)(cB) c2za | ({b}a{g}f){e}d(c B2)z2 |\
c2zd e2a=f |
(e2d)>c c2z2 |\
(dc)({d}cB) B2zc | d2({f}ec) {B2}A4 |\
d2-d(c//B//A//G//) e3a | (g2f)>g g2z2 |\
d2-d(c//B//A//G//) e2-ed//c//B//A// | D2({B}A>G) G4 |]



